X: 46
T: Old South Schottische
L:1/8
M:4/4
S: Viola "Mom" Ruth - Pioneer Western Folk Tunes (1948)
Z:AK/Fiddler's Companion
K:G
B>AF>A G2D2|B>db>a g4|{fg}f2 A>c f2e2|d>BG>A B2c2|
B>AF>A G2D2|B>db>a g4|{fg}f2 A>B c2F2|G>FG>A G4||
K:D
A2A2 F>Ad>f|a>ga>b a4|{g}b2 e>f g2c2|d>f (3dcB A4|
A2A2 F>Ad>f|a>ga>b a4|{g}b2 e>f g2c2|d>cd>e d4||
K:C
C>EG>c [G2e2][G2e2]|E>Gc>e g4|{fg}a2 d>e f2B2|ce (3cBA G4|
C>EG>c [G2e2][G2e2]|E>Gc>e g4|{fg}a2 d>e f2B2|c>Bc>d c4||

%%sep 1 1 500
